X: 482
T: Coleman's March
B: jims roots
M:4/4
L:1/8
Q: 1/4=100
K:D
V:1 
AG |: "D"F3G AGF2 | "G"G2A2 A2A2 | "D"A2AB AGF2 | "A"E2A2 A2DE | "D"FAdA cAdA |
"G"BAA2 F2D2 | "D"E2EF "A"GFE2  | [1 "D"D3D D2E2:| [2 "D"(D4 D)EFA || ||
|: "D"([d4F] [d2F])Ad | "A"([c4A] [c2A])Ac | "G"B2Ac- c2BA | "D"([A4F] [A2F]) DE |
"D"FAdA cAdA | "G"B2A2 FE D2 | "A"E2EF AFE2 | [1 "D"(D4 D)DFA:| [2 "D"(D4 D2)DE ||
% abcbook-tune_id 6298c245bb8ef34972b31867


% abcbook-boost 0
% abcbook-tablature 
% abcbook-transpose 
% abcbook-lastupdated 1654178373770
% abcbook-soundfonts 
% abcbook-repeats 1


